Newaita-dark/apps/256/libreoffice-base.svg

<?xml version="1.0" encoding="UTF-8"?>
<svg xmlns="http://www.w3.org/2000/svg" xmlns:xlink="http://www.w3.org/1999/xlink" width="256pt" height="256pt" viewBox="0 0 256 256" version="1.1">
<defs>
<linearGradient id="linear0" gradientUnits="userSpaceOnUse" x1="254" y1="233.5" x2="254" y2="254.666672" gradientTransform="matrix(0.500048,0,0,0.500048,-0.0000305205,107.510281)">
<stop offset="0" style="stop-color:rgb(0%,0%,0%);stop-opacity:0.27451;"/>
<stop offset="1" style="stop-color:rgb(0%,0%,0%);stop-opacity:0;"/>
</linearGradient>
<radialGradient id="radial0" gradientUnits="userSpaceOnUse" cx="450.908936" cy="189.579361" fx="450.908936" fy="189.579361" r="21.166656" gradientTransform="matrix(0.00000139336,-0.62506,-1.125108,-0.000000812309,390.584361,508.762661)">
<stop offset="0" style="stop-color:rgb(0%,0%,0%);stop-opacity:0.313725;"/>
<stop offset="0.222222" style="stop-color:rgb(0%,0%,0%);stop-opacity:0.27451;"/>
<stop offset="1" style="stop-color:rgb(0%,0%,0%);stop-opacity:0;"/>
</radialGradient>
<radialGradient id="radial1" gradientUnits="userSpaceOnUse" cx="450.908936" cy="189.579361" fx="450.908936" fy="189.579361" r="21.166656" gradientTransform="matrix(-0.00000139336,0.62506,1.125108,0.000000812309,-141.85226,-60.219831)">
<stop offset="0" style="stop-color:rgb(0%,0%,0%);stop-opacity:0.313725;"/>
<stop offset="0.222222" style="stop-color:rgb(0%,0%,0%);stop-opacity:0.27451;"/>
<stop offset="1" style="stop-color:rgb(0%,0%,0%);stop-opacity:0;"/>
</radialGradient>
<radialGradient id="radial2" gradientUnits="userSpaceOnUse" cx="450.908936" cy="189.579361" fx="450.908936" fy="189.579361" r="21.166656" gradientTransform="matrix(-0.00000139336,-0.62506,1.125108,-0.000000812309,-141.85226,508.762661)">
<stop offset="0" style="stop-color:rgb(0%,0%,0%);stop-opacity:0.313725;"/>
<stop offset="0.222222" style="stop-color:rgb(0%,0%,0%);stop-opacity:0.27451;"/>
<stop offset="1" style="stop-color:rgb(0%,0%,0%);stop-opacity:0;"/>
</radialGradient>
<radialGradient id="radial3" gradientUnits="userSpaceOnUse" cx="450.908936" cy="189.579361" fx="450.908936" fy="189.579361" r="21.166656" gradientTransform="matrix(0.00000139336,0.62506,-1.125108,0.000000812309,390.584346,-60.219835)">
<stop offset="0" style="stop-color:rgb(0%,0%,0%);stop-opacity:0.313725;"/>
<stop offset="0.222222" style="stop-color:rgb(0%,0%,0%);stop-opacity:0.27451;"/>
<stop offset="1" style="stop-color:rgb(0%,0%,0%);stop-opacity:0;"/>
</radialGradient>
<filter id="alpha" filterUnits="objectBoundingBox" x="0%" y="0%" width="100%" height="100%">
  <feColorMatrix type="matrix" in="SourceGraphic" values="0 0 0 0 1 0 0 0 0 1 0 0 0 0 1 0 0 0 1 0"/>
</filter>
<mask id="mask0">
  <g filter="url(#alpha)">
<rect x="0" y="0" width="256" height="256" style="fill:rgb(0%,0%,0%);fill-opacity:0.988235;stroke:none;"/>
  </g>
</mask>
<linearGradient id="linear1" gradientUnits="userSpaceOnUse" x1="940" y1="1695.118164" x2="940" y2="175.118118" gradientTransform="matrix(0.132304,0,0,0.132304,0,0)">
<stop offset="0" style="stop-color:rgb(93.333333%,93.333333%,93.333333%);stop-opacity:1;"/>
<stop offset="1" style="stop-color:rgb(96.078431%,96.078431%,96.078431%);stop-opacity:1;"/>
</linearGradient>
<clipPath id="clip1">
  <rect x="0" y="0" width="256" height="256"/>
</clipPath>
<g id="surface5" clip-path="url(#clip1)">
<path style=" stroke:none;fill-rule:nonzero;fill:url(#linear1);" d="M 58.214844 23.167969 C 52.351562 23.167969 47.628906 27.890625 47.628906 33.753906 L 47.628906 213.6875 C 47.628906 219.550781 52.351562 224.273438 58.214844 224.273438 L 190.519531 224.273438 C 196.382812 224.273438 201.101562 219.550781 201.101562 213.6875 L 201.101562 70.796875 L 153.472656 23.167969 Z M 164.058594 23.167969 L 201.101562 60.214844 L 201.101562 33.753906 C 201.101562 27.890625 196.382812 23.167969 190.519531 23.167969 Z M 164.058594 23.167969 "/>
</g>
<mask id="mask1">
  <g filter="url(#alpha)">
<rect x="0" y="0" width="256" height="256" style="fill:rgb(0%,0%,0%);fill-opacity:0.988235;stroke:none;"/>
  </g>
</mask>
<linearGradient id="linear2" gradientUnits="userSpaceOnUse" x1="940" y1="1695.118164" x2="940" y2="175.118118" gradientTransform="matrix(0.132304,0,0,0.132304,0,0)">
<stop offset="0" style="stop-color:rgb(92.54902%,25.098039%,47.843137%);stop-opacity:1;"/>
<stop offset="1" style="stop-color:rgb(94.117647%,38.431373%,57.254902%);stop-opacity:1;"/>
</linearGradient>
<clipPath id="clip2">
  <rect x="0" y="0" width="256" height="256"/>
</clipPath>
<g id="surface8" clip-path="url(#clip2)">
<path style=" stroke:none;fill-rule:nonzero;fill:url(#linear2);" d="M 164.058594 23.167969 L 201.101562 60.214844 L 201.101562 33.753906 C 201.101562 27.890625 196.382812 23.167969 190.519531 23.167969 Z M 164.058594 23.167969 "/>
</g>
<mask id="mask2">
  <g filter="url(#alpha)">
<rect x="0" y="0" width="256" height="256" style="fill:rgb(0%,0%,0%);fill-opacity:0.988235;stroke:none;"/>
  </g>
</mask>
<clipPath id="clip3">
  <rect x="0" y="0" width="256" height="256"/>
</clipPath>
<g id="surface11" clip-path="url(#clip3)">
<path style=" stroke:none;fill-rule:nonzero;fill:rgb(100%,100%,100%);fill-opacity:0.392157;" d="M 58.214844 23.167969 C 52.351562 23.167969 47.628906 27.890625 47.628906 33.753906 L 47.628906 36.398438 C 47.628906 30.535156 52.351562 25.816406 58.214844 25.816406 L 153.472656 25.816406 L 201.101562 73.445312 L 201.101562 70.796875 L 153.472656 23.167969 Z M 164.058594 23.167969 L 166.703125 25.816406 L 190.519531 25.816406 C 196.382812 25.816406 201.101562 30.535156 201.101562 36.398438 L 201.101562 33.753906 C 201.101562 27.890625 196.382812 23.167969 190.519531 23.167969 Z M 164.058594 23.167969 "/>
</g>
<mask id="mask3">
  <g filter="url(#alpha)">
<rect x="0" y="0" width="256" height="256" style="fill:rgb(0%,0%,0%);fill-opacity:0.988235;stroke:none;"/>
  </g>
</mask>
<clipPath id="clip4">
  <rect x="0" y="0" width="256" height="256"/>
</clipPath>
<g id="surface14" clip-path="url(#clip4)">
<path style=" stroke:none;fill-rule:nonzero;fill:rgb(0%,0%,0%);fill-opacity:0.235294;" d="M 164.058594 23.167969 L 201.101562 60.214844 L 201.101562 56.289062 L 167.984375 23.167969 Z M 47.628906 209.761719 L 47.628906 213.6875 C 47.628906 219.550781 52.351562 224.273438 58.214844 224.273438 L 190.519531 224.273438 C 196.382812 224.273438 201.101562 219.550781 201.101562 213.6875 L 201.101562 209.761719 C 201.101562 215.625 196.382812 220.34375 190.519531 220.34375 L 58.214844 220.34375 C 52.351562 220.34375 47.628906 215.625 47.628906 209.761719 Z M 47.628906 209.761719 "/>
</g>
<mask id="mask4">
  <g filter="url(#alpha)">
<rect x="0" y="0" width="256" height="256" style="fill:rgb(0%,0%,0%);fill-opacity:0.988235;stroke:none;"/>
  </g>
</mask>
<clipPath id="clip5">
  <rect x="0" y="0" width="256" height="256"/>
</clipPath>
<g id="surface17" clip-path="url(#clip5)">
<path style=" stroke:none;fill-rule:nonzero;fill:rgb(12.941177%,12.941177%,12.941177%);fill-opacity:1;" d="M 58.214844 22.417969 C 51.949219 22.417969 46.878906 27.488281 46.878906 33.753906 L 46.878906 213.6875 C 46.878906 219.953125 51.949219 225.023438 58.214844 225.023438 L 190.519531 225.023438 C 196.785156 225.023438 201.851562 219.953125 201.851562 213.6875 L 201.851562 70.796875 C 201.851562 70.597656 201.773438 70.410156 201.632812 70.269531 L 154.003906 22.636719 C 153.863281 22.496094 153.671875 22.417969 153.472656 22.417969 Z M 164.058594 22.417969 C 163.753906 22.417969 163.480469 22.601562 163.363281 22.882812 C 163.246094 23.160156 163.3125 23.484375 163.527344 23.699219 L 200.570312 60.746094 C 200.785156 60.960938 201.109375 61.023438 201.390625 60.90625 C 201.671875 60.792969 201.851562 60.515625 201.851562 60.214844 L 201.851562 33.753906 C 201.851562 27.488281 196.785156 22.417969 190.519531 22.417969 Z M 58.214844 23.917969 L 153.164062 23.917969 L 200.351562 71.109375 L 200.351562 213.6875 C 200.351562 219.148438 195.980469 223.519531 190.519531 223.519531 L 58.214844 223.519531 C 52.753906 223.519531 48.378906 219.148438 48.378906 213.6875 L 48.378906 33.753906 C 48.378906 28.292969 52.753906 23.917969 58.214844 23.917969 Z M 165.867188 23.917969 L 190.519531 23.917969 C 195.980469 23.917969 200.351562 28.292969 200.351562 33.753906 L 200.351562 58.402344 Z M 165.867188 23.917969 "/>
</g>
<mask id="mask5">
  <g filter="url(#alpha)">
<rect x="0" y="0" width="256" height="256" style="fill:rgb(0%,0%,0%);fill-opacity:0.988235;stroke:none;"/>
  </g>
</mask>
<linearGradient id="linear3" gradientUnits="userSpaceOnUse" x1="940" y1="1215.118164" x2="940" y2="655.118103" >
<stop offset="0" style="stop-color:rgb(92.54902%,25.098039%,47.843137%);stop-opacity:1;"/>
<stop offset="1" style="stop-color:rgb(94.117647%,38.431373%,57.254902%);stop-opacity:1;"/>
</linearGradient>
<clipPath id="clip6">
  <rect x="0" y="0" width="256" height="256"/>
</clipPath>
<g id="surface20" clip-path="url(#clip6)">
<path style="fill-rule:nonzero;fill:url(#linear3);stroke-width:11.338583;stroke-linecap:round;stroke-linejoin:round;stroke:rgb(12.941177%,12.941177%,12.941177%);stroke-opacity:1;stroke-miterlimit:4;" d="M 940.008708 655.124481 C 795.957496 655.124481 680.013838 708.623312 680.013838 775.113029 C 680.013838 841.602746 795.957496 895.131102 940.008708 895.131102 C 1084.030396 895.131102 1200.003579 841.602746 1200.003579 775.113029 C 1200.003579 708.623312 1084.030396 655.124481 940.008708 655.124481 Z M 714.58731 875.113327 C 692.561853 892.739598 680.013838 913.229768 680.013838 935.107601 C 680.013838 1001.597318 795.957496 1055.125674 940.008708 1055.125674 C 1084.030396 1055.125674 1200.003579 1001.597318 1200.003579 935.107601 C 1200.003579 913.229768 1187.426039 892.739598 1165.430107 875.113327 C 1120.582025 911.044937 1036.613661 935.107601 940.008708 935.107601 C 843.374231 935.107601 759.405867 911.044937 714.58731 875.113327 Z M 714.58731 1035.107899 C 692.561853 1052.73417 680.013838 1073.22434 680.013838 1095.131698 C 680.013838 1161.59189 795.957496 1215.120246 940.008708 1215.120246 C 1084.030396 1215.120246 1200.003579 1161.59189 1200.003579 1095.131698 C 1200.003579 1073.22434 1187.426039 1052.73417 1165.430107 1035.107899 C 1120.582025 1071.039509 1036.613661 1095.131698 940.008708 1095.131698 C 843.374231 1095.131698 759.405867 1071.039509 714.58731 1035.107899 Z M 714.58731 1035.107899 " transform="matrix(0.132304,0,0,0.132304,0,0)"/>
</g>
</defs>
<g id="surface1">
<path style=" stroke:none;fill-rule:nonzero;fill:url(#linear0);" d="M 68.796875 224.269531 L 179.933594 224.269531 L 179.933594 234.855469 L 68.796875 234.855469 Z M 68.796875 224.269531 "/>
<path style=" stroke:none;fill-rule:nonzero;fill:url(#radial0);" d="M 179.933594 224.269531 L 201.101562 224.269531 L 201.101562 213.6875 L 179.933594 213.6875 Z M 179.933594 224.269531 "/>
<path style=" stroke:none;fill-rule:nonzero;fill:url(#radial1);" d="M 68.796875 224.269531 L 47.628906 224.269531 L 47.628906 234.855469 L 68.796875 234.855469 Z M 68.796875 224.269531 "/>
<path style=" stroke:none;fill-rule:nonzero;fill:url(#radial2);" d="M 68.796875 224.269531 L 47.628906 224.269531 L 47.628906 213.6875 L 68.796875 213.6875 Z M 68.796875 224.269531 "/>
<path style=" stroke:none;fill-rule:nonzero;fill:url(#radial3);" d="M 179.933594 224.269531 L 201.101562 224.269531 L 201.101562 234.855469 L 179.933594 234.855469 Z M 179.933594 224.269531 "/>
<use xlink:href="#surface5" mask="url(#mask0)"/>
<use xlink:href="#surface8" mask="url(#mask1)"/>
<use xlink:href="#surface11" mask="url(#mask2)"/>
<use xlink:href="#surface14" mask="url(#mask3)"/>
<use xlink:href="#surface17" mask="url(#mask4)"/>
<use xlink:href="#surface20" mask="url(#mask5)"/>
</g>
</svg>

<svg xmlns="http://www.w3.org/2000/svg" xmlns:xlink="http://www.w3.org/1999/xlink" width="256pt" height="256pt" viewBox="0 0 256 256"><defs><linearGradient id="k" gradientUnits="userSpaceOnUse" x1="254" y1="233.5" x2="254" y2="254.667" gradientTransform="matrix(.50005 0 0 .50005 0 107.51)"><stop offset="0" stop-opacity=".275"/><stop offset="1" stop-opacity="0"/></linearGradient><radialGradient id="l" gradientUnits="userSpaceOnUse" cx="450.909" cy="189.579" fx="450.909" fy="189.579" r="21.167" gradientTransform="matrix(0 -.62506 -1.1251 0 390.584 508.763)"><stop offset="0" stop-opacity=".314"/><stop offset=".222" stop-opacity=".275"/><stop offset="1" stop-opacity="0"/></radialGradient><radialGradient id="m" gradientUnits="userSpaceOnUse" cx="450.909" cy="189.579" fx="450.909" fy="189.579" r="21.167" gradientTransform="matrix(0 .62506 1.1251 0 -141.852 -60.22)"><stop offset="0" stop-opacity=".314"/><stop offset=".222" stop-opacity=".275"/><stop offset="1" stop-opacity="0"/></radialGradient><radialGradient id="n" gradientUnits="userSpaceOnUse" cx="450.909" cy="189.579" fx="450.909" fy="189.579" r="21.167" gradientTransform="matrix(0 -.62506 1.1251 0 -141.852 508.763)"><stop offset="0" stop-opacity=".314"/><stop offset=".222" stop-opacity=".275"/><stop offset="1" stop-opacity="0"/></radialGradient><radialGradient id="o" gradientUnits="userSpaceOnUse" cx="450.909" cy="189.579" fx="450.909" fy="189.579" r="21.167" gradientTransform="matrix(0 .62506 -1.1251 0 390.584 -60.22)"><stop offset="0" stop-opacity=".314"/><stop offset=".222" stop-opacity=".275"/><stop offset="1" stop-opacity="0"/></radialGradient><filter id="a" filterUnits="objectBoundingBox" x="0%" y="0%" width="100%" height="100%"><feColorMatrix in="SourceGraphic" values="0 0 0 0 1 0 0 0 0 1 0 0 0 0 1 0 0 0 1 0"/></filter><mask id="q"><path fill-opacity=".988" d="M0 0h256v256H0z" filter="url(#a)"/></mask><linearGradient id="c" gradientUnits="userSpaceOnUse" x1="940" y1="1695.118" x2="940" y2="175.118" gradientTransform="scale(.1323)"><stop offset="0" stop-color="#eee"/><stop offset="1" stop-color="#f5f5f5"/></linearGradient><clipPath id="b"><path d="M0 0h256v256H0z"/></clipPath><g id="p" clip-path="url(#b)"><path d="M58.215 23.168a10.564 10.564 0 0 0-10.586 10.586v179.934a10.564 10.564 0 0 0 10.586 10.585H190.52a10.561 10.561 0 0 0 10.582-10.585V70.797l-47.63-47.629zm105.844 0l37.043 37.047V33.754a10.561 10.561 0 0 0-10.582-10.586zm0 0" fill="url(#c)"/></g><mask id="s"><path fill-opacity=".988" d="M0 0h256v256H0z" filter="url(#a)"/></mask><linearGradient id="e" gradientUnits="userSpaceOnUse" x1="940" y1="1695.118" x2="940" y2="175.118" gradientTransform="scale(.1323)"><stop offset="0" stop-color="#ec407a"/><stop offset="1" stop-color="#f06292"/></linearGradient><clipPath id="d"><path d="M0 0h256v256H0z"/></clipPath><g id="r" clip-path="url(#d)"><path d="M164.059 23.168l37.043 37.047V33.754a10.561 10.561 0 0 0-10.582-10.586zm0 0" fill="url(#e)"/></g><mask id="u"><path fill-opacity=".988" d="M0 0h256v256H0z" filter="url(#a)"/></mask><clipPath id="f"><path d="M0 0h256v256H0z"/></clipPath><g id="t" clip-path="url(#f)"><path d="M58.215 23.168a10.564 10.564 0 0 0-10.586 10.586v2.644a10.561 10.561 0 0 1 10.586-10.582h95.258l47.629 47.63v-2.65l-47.63-47.628zm105.844 0l2.644 2.648h23.817a10.558 10.558 0 0 1 10.582 10.582v-2.644a10.561 10.561 0 0 0-10.582-10.586zm0 0" fill="#fff" fill-opacity=".392"/></g><mask id="w"><path fill-opacity=".988" d="M0 0h256v256H0z" filter="url(#a)"/></mask><clipPath id="g"><path d="M0 0h256v256H0z"/></clipPath><g id="v" clip-path="url(#g)"><path d="M164.059 23.168l37.043 37.047v-3.926l-33.118-33.121zM47.629 209.762v3.925a10.564 10.564 0 0 0 10.586 10.586H190.52a10.561 10.561 0 0 0 10.582-10.585v-3.926a10.558 10.558 0 0 1-10.582 10.582H58.215a10.561 10.561 0 0 1-10.586-10.582zm0 0" fill-opacity=".235"/></g><mask id="y"><path fill-opacity=".988" d="M0 0h256v256H0z" filter="url(#a)"/></mask><clipPath id="h"><path d="M0 0h256v256H0z"/></clipPath><g id="x" clip-path="url(#h)"><path d="M58.215 22.418a11.33 11.33 0 0 0-11.336 11.336v179.934a11.33 11.33 0 0 0 11.336 11.335H190.52c6.265 0 11.332-5.07 11.332-11.335V70.797c0-.2-.079-.387-.22-.527l-47.628-47.633a.75.75 0 0 0-.531-.219zm105.844 0a.753.753 0 0 0-.696.465.748.748 0 0 0 .164.816l37.043 37.047a.751.751 0 0 0 1.282-.531V33.754c0-6.266-5.067-11.336-11.332-11.336zm-105.844 1.5h94.95l47.187 47.191v142.579a9.793 9.793 0 0 1-9.832 9.832H58.215a9.796 9.796 0 0 1-9.836-9.833V33.755a9.8 9.8 0 0 1 9.836-9.836zm107.652 0h24.653a9.796 9.796 0 0 1 9.832 9.836v24.648zm0 0" fill="#212121"/></g><mask id="A"><path fill-opacity=".988" d="M0 0h256v256H0z" filter="url(#a)"/></mask><linearGradient id="j" gradientUnits="userSpaceOnUse" x1="940" y1="1215.118" x2="940" y2="655.118"><stop offset="0" stop-color="#ec407a"/><stop offset="1" stop-color="#f06292"/></linearGradient><clipPath id="i"><path d="M0 0h256v256H0z"/></clipPath><g id="z" clip-path="url(#i)"><path d="M940.009 655.124c-144.052 0-259.995 53.5-259.995 119.989 0 66.49 115.943 120.018 259.995 120.018 144.021 0 259.995-53.528 259.995-120.018 0-66.49-115.974-119.989-259.995-119.989zm-225.422 219.99c-22.025 17.626-34.573 38.116-34.573 59.994 0 66.49 115.943 120.018 259.995 120.018 144.021 0 259.995-53.529 259.995-120.018 0-21.878-12.578-42.368-34.574-59.995-44.848 35.932-128.816 59.995-225.421 59.995-96.635 0-180.603-24.063-225.422-59.995zm0 159.994c-22.025 17.626-34.573 38.116-34.573 60.024 0 66.46 115.943 119.988 259.995 119.988 144.021 0 259.995-53.528 259.995-119.988 0-21.908-12.578-42.398-34.574-60.024-44.848 35.932-128.816 60.024-225.421 60.024-96.635 0-180.603-24.092-225.422-60.024zm0 0" transform="scale(.1323)" fill="url(#j)" stroke-width="11.339" stroke-linecap="round" stroke-linejoin="round" stroke="#212121"/></g></defs><path d="M68.797 224.27h111.137v10.585H68.797zm0 0" fill="url(#k)"/><path d="M179.934 224.27h21.168v-10.583h-21.168zm0 0" fill="url(#l)"/><path d="M68.797 224.27H47.629v10.585h21.168zm0 0" fill="url(#m)"/><path d="M68.797 224.27H47.629v-10.583h21.168zm0 0" fill="url(#n)"/><path d="M179.934 224.27h21.168v10.585h-21.168zm0 0" fill="url(#o)"/><use xlink:href="#p" mask="url(#q)"/><use xlink:href="#r" mask="url(#s)"/><use xlink:href="#t" mask="url(#u)"/><use xlink:href="#v" mask="url(#w)"/><use xlink:href="#x" mask="url(#y)"/><use xlink:href="#z" mask="url(#A)"/></svg>
